X:5
T:Abbey, The
R:reel
Z:Transcribed by Dave Marshall
M:C|
K:Ador
|:~A3B A2GE|A2GA BddB|~A3B AGEF| ~G3A B~d3:|
e~g3 ~a3e|gabg aged|e~g3 a2ga|bgef ged2|
e~g3 a~g3|agbg aged|e~g3 a2ga|bgef gedB|
